// https://youtu.be/Cs0J-quWiBg

@sample

mix = 0;

channel = -1; loop(num_ch, channel += 1;
  mix += spl(channel);
);

mix /= num_ch;

channel = -1; loop(num_ch, channel += 1;
  spl(channel) = mix;
);
