// https://youtu.be/0M_aDx874NU

@sample

signal_channel = -1;
envelope_channel = (num_ch / 2) - 1;
loop(num_ch / 2,
  signal_channel += 1;
  envelope_channel += 1;
  spl(signal_channel) *= spl(envelope_channel);
  spl(envelope_channel) = 0;
);
