1. Loop unrolling.
2. Function inlining.

1. Test the pseudo-objects version of the filters.
2. Drawing waveforms with variables instead of memory

desc:Stress test - Filters - Objects

import leafac.jsfx-inc

@init

_.init();

filters = _.array.new(1000);
filters.index = -1; loop(filters[_.array.struct.size], filters.index += 1;
  filter = _.filter.biquad.svf.new();
  _.filter.biquad.svf.configure(filter, _.filter.biquad.svf.struct.type.low_pass, 500, _.undefined, 0.707);
  filters[_.array.struct.data][filters.index] = filter;
);

@sample

filters.index = -1; loop(filters[_.array.struct.size], filters.index += 1;
  filter = filters[_.array.struct.data][filters.index];
  spl0 = _.filter.biquad.svf.filter(filter, spl0);
);
